X:281
T:Gille Callum
R:Strathspey
S:McGlashan - Reels (pg. 26)
N:"The Original Sett" (sic)
M:C|
L:1/8
K:D
A<A c>e d2 BG|A<A c>e d2 c>A|E<E G>B d2 B>G|A<A c>e dB e2|A<A c>e d2 B>G|
A<A ce d2 c>A|BEBe d2 B>G|A<A c>e B/c/d e2||A<A c>A g2 B>G|A<A c>A a2 ae|
G2 g2 d2 B>G|A<A c>A dB e2|A<A c>A g2 B>G|A<A c>A a2 ae|g2 a/g/f/e/ d2 B>G|
A<A c>A B/c/d e2||A<A c>A AgBG|A<A c>A AacA|aefd egBG|A<A c>e B/c/d e2|
A<A c>A AgBG|A<A c>A AacA|gbeg dgBG|A<A c>E B/c/d e2||
|:A<A c>A G/G/G BG|A<A c>A A/A/A c>A|c>ABA G/G/G B>G|A<A c>A B/c/d e2:|
|:A<A c>e dgBG|A<A c>e AacA|a/g/f/e/ fd gdBG|A<A c>e B/c/d e2:|
|:A2 cA BGBG|A2 cA cAcA|cAcA BGBG|A<A c>A B/c/d e2:|
|:A<A c>e AgBG|A<A c>e AacA|gaeg dgBb|gaeg dg e2:|

